X:1
T:Title
%%score { ( 1 3 ) | ( 2 4 ) }
L:1/8
M:4/4
K:Ab
V:1 treble nm="Grand Piano"
V:3 treble 
V:2 bass 
V:4 bass 
V:1
 z4 z2[Q:1/4=96] [A,C][B,D] | [CE][_C=D][=CE][CA] [Ec]2 [=Ec]2 | [Fc]2 [FB]4 [GB][_Gc] | %3
 [Gd][Gc][Gd][GB] [DG]2 [DF]2 | [CE]6 [A,C][B,D] | [CE][_C=D][=CE][CA] [Ec]2 [_Ge]2 | %6
 [Fe]2 [Fd]4 [Fd][Fc] | [FB][=DF][_D=E][=DF] [DB]2 [Dc]2 | [DB]6 z2 | %9
 [Ec] [Ec]2 [CE] [_C=D][=CE] [CB]<[CA] | [A,E]2 [A,=DF]2 [B,_DG]4 | [Gd] [Gd]2 [Gc] [Ge][Gd] B<G | %12
 z4 [Cc]4 | AAAG F[C=EG] .[CFA]2 | z4 z2 B2 | %15
[M:19/16] cA[Q:1/4=90][Q:1/4=84]B[Q:1/4=78]cd/ z/ z/ z c/-c-<cB/[Q:1/4=95][Q:1/4=93][Q:1/4=92][Q:1/4=89][Q:1/4=87][Q:1/4=86][Q:1/4=83][Q:1/4=81][Q:1/4=80][Q:1/4=77][Q:1/4=75][Q:1/4=74] | %16
[M:3/4] [CA]6 |] %17
V:2
 z4 z2 [A,,E,][A,,E,] | [A,,A,][A,,A,][A,,A,][A,,E,] [A,,A,]2 [A,,A,]2 | %2
 [D,A,]2 [D,D]4 [E,D][E,=A,] | [E,B,][E,=A,][E,B,][E,E] [E,B,]2 [E,G,]2 | [A,,A,]6 [A,,E,][A,,E,] | %5
 [A,,A,][A,,A,][A,,A,][A,,E,] [A,,A,]2 [C,A,]2 | [D,A,]2 [D,A,]4 [B,,B,][C,=A,] | %7
 [=D,B,][B,,A,][B,,G,][B,,A,] [B,,F,]2 [B,,A,]2 | [E,G,]6 z2 | %9
 [A,,A,] [A,,A,]2 [A,,A,] [A,,F,][A,,E,] [A,,E,]<[A,,E,] | C,2 _C,2 B,,2 E,2 | %11
 [E,B,] [E,B,]2 [E,E] [E,D][E,B,] [E,G,D]<[E,B,D] | [E,G,D]2 [E,G,D]2 E,2 z2 | %13
 [F,CF][F,CF][F,CF][F,B,C] [F,A,C]C, z E | B,,C,=D,B,, [E,B,E][E,F,E] .[E,G,E]2 | %15
[M:19/16] [A,CE][A,CE][G,CE][_G,A,E][F,A,D]/D-<D[E,G,D]/-[E,G,D]-<[E,G,D][E,G,D]/ | %16
[M:3/4] [A,,E,A,]6 |] %17
V:3
 x8 | x8 | x8 | x8 | x8 | x8 | x8 | x8 | x8 | x8 | x8 | x8 | E2 B2 z2 A,2 | x8 | %14
 [B,=DB][B,EB][B,FB][B,DA] GA z _D |[M:19/16] z/ z/ z/ z/ z/ z/ z/ z F/-F-<F z/ z/ z/ z | %16
[M:3/4] x6 |] %17
V:4
 x8 | x8 | x8 | x8 | x8 | x8 | x8 | x8 | x8 | x8 | x8 | x8 | z4 A,,4 | z4 z2 F,2 | x8 | %15
[M:19/16] z/ z/ z/ z/ z/ z/ z/ z [D,A,]/-[D,A,]-<[D,A,] z/ z/ z/ z |[M:3/4] x6 |] %17

